X:2269
T:Svingedans
T:"Så bister kall blåser nordanvinden"
T:efter Bror Dahlgren
S:efter Bror Dahlgren
O:Bjärsjölagård, Skåne
Z:Åke Persson, 2012-03-25
R:Svingedans
M:3/4
L:1/8
Q:1/4=108
%%printtempo 0
%%MIDI ratio 2 1
K:G
 D |: B>B G2 B>c | B>G A2 A>B | c>c D2 A>c | B>A G3 D :|
|: B>c d2 d>B | e>B c2 c>e | A>B c2 c>e | d>c B3 D |
B>B G2 B>c | B>G A2 A>B | c>c D2 A>c | B>A G3 D :|
(:musicend:)
Detta är ett känt skillingtryck som blivit till svingedans.
Upptecknad ur minnet. Bror Dahlgren gjorde många variationer av melodin
från gång till gång så detta är bara den ungefärliga grundmelodin.
(:music:)
